lib/assets/buttons/media_item_amazon.svg

<svg height="24" viewBox="0 0 10.56 10.558733" width="24" xmlns="http://www.w3.org/2000/svg">
    <path d="m.89596 7.5867243c.0267-.044621.0693-.047338.128-.00836 1.33334.8081427 2.78403 1.2121983 4.35204 1.2121983 1.04534 0 2.07735-.2034176 3.09603-.6102739.0267-.011181.0653-.027901.116-.05016.0507-.022258.0867-.038978.108-.050159.08-.03344.14267-.01672.18801.050159.0453.066879.0307.1281785-.044.1839182-.096.0724184-.21868.1560593-.36801.2507981-.45867.2842372-.97068.5043851-1.53601.6604438-.56535.1560588-1.11735.2340777-1.65602.2340777-.83201 0-1.61869-.1518788-2.36002-.4556154-.74135-.3037472-1.40535-.7315032-1.99202-1.2832681-.032-.027901-.048-.055698-.048-.083599 0-.01672.005-.03344.016-.05016zm2.40802-2.382597c0-.3845562.0907-.7133831.272-.9864806.18133-.2730976.42934-.4793054.74401-.6186443.288-.1281784.64267-.2201375 1.06401-.2758772.144-.0167199.37867-.0389781.70401-.0668794v-.1421185c0-.3566968-.0373-.5963442-.112-.7189633-.112-.1671983-.28801-.2507975-.52801-.2507975h-.064c-.176.0167198-.328.0752392-.456.1755582s-.21068.2396579-.24801.4180063c-.0213.1114586-.0747.1755583-.16.1922781l-.92001-.1170388c-.0907-.022258-.136-.072418-.136-.150489 0-.01672.003-.036261.008-.058519.0907-.4960151.31333-.8638619.66801-1.1035198.35467-.2396475.76933-.3734166 1.24401-.401276h.2c.60801 0 1.08268.1644187 1.42402.4932351a1.5241752 1.5927472 0 0 1 .148.1797486c.0453.064058.0813.1212188.108.1713783.0267.050159.0507.1226191.072.2173578.0213.094781.0373.1602387.048.1964581.0107.036261.0187.1142591.024.2340776.005.119829.008.1908883.008.2131883v2.0231207c0 .1448983.02.2772671.06.397096.04.1198185.0787.2062183.116.2591575.0373.052981.0987.1379386.184.2549774.032.05016.048.094781.048.1337691 0 .044621-.0213.083599-.064.1170388-.44267.401276-.68267.6186339-.72.6520735-.064.05016-.14134.055698-.232.01672-.0747-.0668795-.14001-.1309687-.19601-.1922782-.056-.0613409-.096-.1058993-.12-.1337587-.024-.0279012-.0627-.0822407-.116-.1630184-.0533-.0807776-.0907-.1351589-.112-.1630183-.29868.3399769-.59201.5517545-.88001.6353536-.18134.055698-.40534.083599-.67201.083599-.41067 0-.748-.1323584-1.01201-.397096-.264-.2647377-.396-.6395441-.396-1.1244192zm1.37601-.1671984c0 .2173579.052.3915263.15601.5224948.104.130979.244.196458.42.196458.016 0 .0387-.00313.068-.00836.0293-.00522.0493-.00836.06-.00836.224-.061341.39733-.2117776.52001-.4514355.0587-.1058992.10266-.2215378.132-.3469365.0293-.1253988.0453-.227118.048-.3051474.003-.078061.004-.2062078.004-.3845562v-.2089977c-.30934 0-.54401.022258-.70401.066879-.46934.1393393-.70401.4486562-.70401.9279615zm3.36004 2.691914c.0107-.022258.0267-.044621.048-.066879.13333-.094781.26133-.1588384.384-.1922781.20267-.055698.40001-.086421.59201-.091959.0533-.00522.104-.00314.152.00836.24.022258.384.064058.432.1253988.0213.03344.032.083599.032.1504785v.058519c0 .1950682-.0507.4249659-.152.6897035-.10133.2647377-.24267.4779156-.424.6395441-.0267.022258-.0507.03344-.072.03344-.0107 0-.0213-.00314-.032-.00836-.032-.01672-.04-.047338-.024-.091959.19733-.4848856.296-.8220724.296-1.0115604 0-.061341-.0107-.1058992-.032-.1337691-.0533-.066879-.20267-.100319-.448-.100319-.0907 0-.19734.00523-.32001.01672-.13334.01672-.256.03344-.368.05016-.032 0-.0533-.00523-.064-.01672-.0107-.011181-.0133-.022258-.008-.03344 0-.00523.003-.013898.008-.02508z" />
</svg>

<?xml version="1.0" encoding="UTF-8" standalone="no"?>
<svg
   xmlns:dc="http://purl.org/dc/elements/1.1/"
   xmlns:cc="http://creativecommons.org/ns#"
   xmlns:rdf="http://www.w3.org/1999/02/22-rdf-syntax-ns#"
   xmlns:svg="http://www.w3.org/2000/svg"
   xmlns="http://www.w3.org/2000/svg"
   width="24"
   height="24"
   viewBox="0 0 10.56 10.558733"
   id="svg4888"
   version="1.1">
  <metadata
     id="metadata4896">
    <rdf:RDF>
      <cc:Work
         rdf:about="">
        <dc:format>image/svg+xml</dc:format>
        <dc:type
           rdf:resource="http://purl.org/dc/dcmitype/StillImage" />
      </cc:Work>
    </rdf:RDF>
  </metadata>
  <defs
     id="defs4894" />
  <path
     d="m 0.89596,7.5867243 c 0.0267,-0.044621 0.0693,-0.047338 0.128,-0.00836 1.33334,0.8081427 2.78403,1.2121983 4.35204,1.2121983 1.04534,0 2.07735,-0.2034176 3.09603,-0.6102739 0.0267,-0.011181 0.0653,-0.027901 0.116,-0.05016 0.0507,-0.022258 0.0867,-0.038978 0.108,-0.050159 0.08,-0.03344 0.14267,-0.01672 0.18801,0.050159 0.0453,0.066879 0.0307,0.1281785 -0.044,0.1839182 C 8.74404,8.3864653 8.62136,8.4701062 8.47203,8.564845 8.01336,8.8490822 7.50135,9.0692301 6.93602,9.2252888 6.37067,9.3813476 5.81867,9.4593665 5.28,9.4593665 4.44799,9.4593665 3.66131,9.3074877 2.91998,9.0037511 2.17863,8.7000039 1.51463,8.2722479 0.92796,7.720483 c -0.032,-0.027901 -0.048,-0.055698 -0.048,-0.083599 0,-0.01672 0.005,-0.03344 0.016,-0.05016 z m 2.40802,-2.382597 c 0,-0.3845562 0.0907,-0.7133831 0.272,-0.9864806 C 3.75731,3.9445491 4.00532,3.7383413 4.31999,3.5990024 4.60799,3.470824 4.96266,3.3788649 5.384,3.3231252 5.528,3.3064053 5.76267,3.2841471 6.08801,3.2562458 V 3.1141273 c 0,-0.3566968 -0.0373,-0.5963442 -0.112,-0.7189633 C 5.86401,2.2279657 5.688,2.1443665 5.448,2.1443665 H 5.384 C 5.208,2.1610863 5.056,2.2196057 4.928,2.3199247 4.8,2.4202437 4.71732,2.5595826 4.67999,2.737931 4.65869,2.8493896 4.60529,2.9134893 4.51999,2.9302091 L 3.59998,2.8131703 c -0.0907,-0.022258 -0.136,-0.072418 -0.136,-0.150489 0,-0.01672 0.003,-0.036261 0.008,-0.058519 C 3.56268,2.1081472 3.78531,1.7403004 4.13999,1.5006425 4.49466,1.260995 4.90932,1.1272259 5.384,1.0993665 h 0.2 c 0.60801,0 1.08268,0.1644187 1.42402,0.4932351 a 1.5241752,1.5927472 0 0 1 0.148,0.1797486 c 0.0453,0.064058 0.0813,0.1212188 0.108,0.1713783 0.0267,0.050159 0.0507,0.1226191 0.072,0.2173578 0.0213,0.094781 0.0373,0.1602387 0.048,0.1964581 0.0107,0.036261 0.0187,0.1142591 0.024,0.2340776 0.005,0.119829 0.008,0.1908883 0.008,0.2131883 V 4.827931 c 0,0.1448983 0.02,0.2772671 0.06,0.397096 0.04,0.1198185 0.0787,0.2062183 0.116,0.2591575 0.0373,0.052981 0.0987,0.1379386 0.184,0.2549774 0.032,0.05016 0.048,0.094781 0.048,0.1337691 0,0.044621 -0.0213,0.083599 -0.064,0.1170388 -0.44267,0.401276 -0.68267,0.6186339 -0.72,0.6520735 -0.064,0.05016 -0.14134,0.055698 -0.232,0.01672 C 6.73332,6.5918838 6.66801,6.5277946 6.61201,6.4664851 6.55601,6.4051442 6.51601,6.3605858 6.49201,6.3327264 6.46801,6.3048252 6.42931,6.2504857 6.37601,6.169708 6.32271,6.0889304 6.28531,6.0345491 6.26401,6.0066897 5.96533,6.3466666 5.672,6.5584442 5.384,6.6420433 c -0.18134,0.055698 -0.40534,0.083599 -0.67201,0.083599 -0.41067,0 -0.748,-0.1323584 -1.01201,-0.397096 -0.264,-0.2647377 -0.396,-0.6395441 -0.396,-1.1244192 z M 4.67999,5.0369289 c 0,0.2173579 0.052,0.3915263 0.15601,0.5224948 0.104,0.130979 0.244,0.196458 0.42,0.196458 0.016,0 0.0387,-0.00313 0.068,-0.00836 0.0293,-0.00522 0.0493,-0.00836 0.06,-0.00836 0.224,-0.061341 0.39733,-0.2117776 0.52001,-0.4514355 0.0587,-0.1058992 0.10266,-0.2215378 0.132,-0.3469365 0.0293,-0.1253988 0.0453,-0.227118 0.048,-0.3051474 0.003,-0.078061 0.004,-0.2062078 0.004,-0.3845562 V 4.0420884 c -0.30934,0 -0.54401,0.022258 -0.70401,0.066879 C 4.91466,4.2483067 4.67999,4.5576236 4.67999,5.0369289 z m 3.36004,2.691914 c 0.0107,-0.022258 0.0267,-0.044621 0.048,-0.066879 0.13333,-0.094781 0.26133,-0.1588384 0.384,-0.1922781 0.20267,-0.055698 0.40001,-0.086421 0.59201,-0.091959 0.0533,-0.00522 0.104,-0.00314 0.152,0.00836 0.24,0.022258 0.384,0.064058 0.432,0.1253988 0.0213,0.03344 0.032,0.083599 0.032,0.1504785 v 0.058519 c 0,0.1950682 -0.0507,0.4249659 -0.152,0.6897035 -0.10133,0.2647377 -0.24267,0.4779156 -0.424,0.6395441 -0.0267,0.022258 -0.0507,0.03344 -0.072,0.03344 -0.0107,0 -0.0213,-0.00314 -0.032,-0.00836 -0.032,-0.01672 -0.04,-0.047338 -0.024,-0.091959 0.19733,-0.4848856 0.296,-0.8220724 0.296,-1.0115604 0,-0.061341 -0.0107,-0.1058992 -0.032,-0.1337691 -0.0533,-0.066879 -0.20267,-0.100319 -0.448,-0.100319 -0.0907,0 -0.19734,0.00523 -0.32001,0.01672 -0.13334,0.01672 -0.256,0.03344 -0.368,0.05016 -0.032,0 -0.0533,-0.00523 -0.064,-0.01672 -0.0107,-0.011181 -0.0133,-0.022258 -0.008,-0.03344 0,-0.00523 0.003,-0.013898 0.008,-0.02508 z"
     id="path4890" />
</svg>
